src/assets/fishes/whale.svg

<svg width="122" height="80" viewBox="0 0 122 80" fill="none" xmlns="http://www.w3.org/2000/svg">
<g clip-path="url(#clip0_1049_2049)">
<path d="M95.8999 26.0998C95.9999 26.0998 96.0999 26.0998 96.0999 26.1998C96.3999 27.4998 98.4999 38.3998 88.2999 38.5998C77.3999 38.7998 11.0999 38.5998 11.0999 38.5998C11.0999 38.5998 4.19987 37.8998 11.0999 50.1998C27.7999 80.0998 104 74.1998 104 40.6998C104 40.6998 104.1 32.3998 101 26.1998C100.9 26.0998 101 25.8998 101.2 25.8998C103.3 25.9998 114.7 25.8998 114.8 10.0998C114.8 9.9998 114.7 9.8998 114.6 9.8998C112.9 10.2998 102.7 12.8998 99.3999 17.2998C98.8999 17.9998 97.7999 17.8998 97.3999 17.0998C95.7999 14.1998 91.2999 9.8998 82.8999 9.7998C82.7999 9.7998 82.6999 9.8998 82.6999 9.9998C82.3999 11.7998 80.7999 25.9998 95.8999 26.0998Z" fill="#14A7FF"/>
<path d="M9.2998 46.7998H56.6998C56.6998 46.7998 63.8998 46.7998 63.8998 57.6998C63.8998 65.3998 63.8998 69.1998 63.8998 69.1998C61.9998 70.2998 18.8998 72.3998 9.2998 46.7998Z" fill="#E2E1D4"/>
<path d="M18.9 59.3999L17.1 57.8999L16.3 57.1999L15.5 56.3999V46.8999H19V59.3999H18.9Z" fill="#CDC9C3"/>
<path d="M28.5996 64.7998L25.0996 63.1998V46.7998H28.5996V64.7998Z" fill="#CDC9C3"/>
<path d="M39 67.8998L37.6 67.5998L35.5 67.0998V46.7998H39V67.8998Z" fill="#CDC9C3"/>
<path d="M50 69.4998L46.5 69.0998V46.7998H50V69.4998Z" fill="#CDC9C3"/>
<path d="M59.9 69.6998H58.2H56.5V46.7998H56.8C58.4 46.7998 59.9 47.7998 59.9 47.7998V69.6998Z" fill="#CDC9C3"/>
<path d="M38.8998 50.8999C41.6998 50.8999 43.9998 48.6999 43.9998 45.8999C43.9998 43.0999 41.6998 40.8999 38.8998 40.8999C36.0998 40.8999 33.7998 43.0999 33.7998 45.8999C33.7998 48.6999 36.0998 50.8999 38.8998 50.8999Z" fill="white"/>
<path d="M38.8999 48.8999C40.5999 48.8999 41.8999 47.5999 41.8999 45.8999C41.8999 44.2999 40.4999 42.8999 38.8999 42.8999C37.1999 42.8999 35.8999 44.1999 35.8999 45.8999C35.8999 47.5999 37.1999 48.8999 38.8999 48.8999Z" fill="#231815"/>
<path d="M30.4999 50.8999C33.2999 50.8999 35.5999 48.6999 35.5999 45.8999C35.5999 43.0999 33.2999 40.8999 30.4999 40.8999C27.6999 40.8999 25.3999 43.0999 25.3999 45.8999C25.3999 48.6999 27.6999 50.8999 30.4999 50.8999Z" fill="white"/>
<path d="M30.5 48.8999C32.2 48.8999 33.5 47.5999 33.5 45.8999C33.5 44.2999 32.1 42.8999 30.5 42.8999C28.9 42.8999 27.5 44.1999 27.5 45.8999C27.5 47.5999 28.8 48.8999 30.5 48.8999Z" fill="#231815"/>
<path d="M81.0999 59.8C81.3999 59.6 81.3999 59.1 81.0999 58.9C78.8999 57.8 72.9999 54.8 70.8999 52.2C68.7999 49.5 62.4999 46.7 61.4999 52.5C60.9999 55.6 62.2999 58.7 64.7999 60.6C67.9999 62.9 73.3999 64.8 81.0999 59.8Z" fill="#0E72A2"/>
</g>
<defs>
<clipPath id="clip0_1049_2049">
<rect width="122" height="80" fill="white"/>
</clipPath>
</defs>
</svg>

<?xml version="1.0" encoding="utf-8"?>
<!-- Generator: Adobe Illustrator 27.0.1, SVG Export Plug-In . SVG Version: 6.00 Build 0)  -->
<svg version="1.1" id="レイヤー_1" xmlns="http://www.w3.org/2000/svg" xmlns:xlink="http://www.w3.org/1999/xlink" x="0px"
	 y="0px" viewBox="0 0 122 80" style="enable-background:new 0 0 122 80;" xml:space="preserve">
<style type="text/css">
	.st0{fill:#14A7FF;}
	.st1{fill:#E2E1D4;}
	.st2{fill:#CDC9C3;}
	.st3{fill:#FFFFFF;}
	.st4{fill:#231815;}
	.st5{fill:#0E72A2;}
</style>
<g id="本体_xFF08_薄_xFF09_">
	<path class="st0" d="M95.9,26.1c0.1,0,0.2,0,0.2,0.1c0.3,1.3,2.4,12.2-7.8,12.4c-10.9,0.2-77.2,0-77.2,0s-6.9-0.7,0,11.6
		c16.7,29.9,92.9,24,92.9-9.5c0,0,0.1-8.3-3-14.5c-0.1-0.1,0-0.3,0.2-0.3c2.1,0.1,13.5,0,13.6-15.8c0-0.1-0.1-0.2-0.2-0.2
		c-1.7,0.4-11.9,3-15.2,7.4c-0.5,0.7-1.6,0.6-2-0.2c-1.6-2.9-6.1-7.2-14.5-7.3c-0.1,0-0.2,0.1-0.2,0.2C82.4,11.8,80.8,26,95.9,26.1z
		"/>
</g>
<g id="色変わらんとこ">
	<path class="st1" d="M9.3,46.8h47.4c0,0,7.2,0,7.2,10.9c0,7.7,0,11.5,0,11.5C62,70.3,18.9,72.4,9.3,46.8L9.3,46.8z"/>
	<path class="st2" d="M18.9,59.4l-1.8-1.5l-0.8-0.7l-0.8-0.8v-9.5H19v12.5H18.9z"/>
	<path class="st2" d="M28.6,64.8l-3.5-1.6V46.8h3.5V64.8z"/>
	<path class="st2" d="M39,67.9l-1.4-0.3l-2.1-0.5V46.8H39V67.9z"/>
	<path class="st2" d="M50,69.5l-3.5-0.4V46.8H50V69.5z"/>
	<path class="st2" d="M59.9,69.7h-1.7h-1.7V46.8h0.3c1.6,0,3.1,1,3.1,1S59.9,69.7,59.9,69.7z"/>
	<path class="st3" d="M38.9,50.9c2.8,0,5.1-2.2,5.1-5s-2.3-5-5.1-5s-5.1,2.2-5.1,5C33.8,48.7,36.1,50.9,38.9,50.9z"/>
	<path class="st4" d="M38.9,48.9c1.7,0,3-1.3,3-3c0-1.6-1.4-3-3-3c-1.7,0-3,1.3-3,3C35.9,47.6,37.2,48.9,38.9,48.9z"/>
	<path class="st3" d="M30.5,50.9c2.8,0,5.1-2.2,5.1-5s-2.3-5-5.1-5s-5.1,2.2-5.1,5C25.4,48.7,27.7,50.9,30.5,50.9z"/>
	<path class="st4" d="M30.5,48.9c1.7,0,3-1.3,3-3c0-1.6-1.4-3-3-3s-3,1.3-3,3C27.5,47.6,28.8,48.9,30.5,48.9z"/>
</g>
<g id="ひれ_xFF08_濃_xFF09_">
	<path class="st5" d="M81.1,59.8c0.3-0.2,0.3-0.7,0-0.9c-2.2-1.1-8.1-4.1-10.2-6.7c-2.1-2.7-8.4-5.5-9.4,0.3
		c-0.5,3.1,0.8,6.2,3.3,8.1C68,62.9,73.4,64.8,81.1,59.8L81.1,59.8z"/>
</g>
</svg>
